public/assets/images/iconmonstr-code-2.svg

<svg xmlns="http://www.w3.org/2000/svg" style="transform:rotateZ(0deg);" width="24" height="24" fill="yellow" viewBox="0 0 24 24"><path d="M24 10.935v2.131l-8 3.947v-2.23l5.64-2.783-5.64-2.79v-2.223l8 3.948zm-16 3.848l-5.64-2.783 5.64-2.79v-2.223l-8 3.948v2.131l8 3.947v-2.23zm7.047-10.783h-2.078l-4.011 16h2.073l4.016-16z"/></svg>

<svg xmlns="http://www.w3.org/2000/svg" width="24" height="24" fill="#ff0" style="transform:rotateZ(0deg)"><path d="M24 10.935v2.131l-8 3.947v-2.23L21.64 12 16 9.21V6.987zM8 14.783 2.36 12 8 9.21V6.987l-8 3.948v2.131l8 3.947zM15.047 4h-2.078L8.958 20h2.073z"/></svg>
